assets/payVisa1.svg

<svg width="60" height="50" viewBox="0 0 60 50" fill="none" xmlns="http://www.w3.org/2000/svg">
<path d="M26.8902 33.1087H22.7699L25.345 17.2828H29.4657L26.8902 33.1087ZM19.3036 17.2828L15.3755 28.168L14.9107 25.824L14.9111 25.8248L13.5247 18.7077C13.5247 18.7077 13.357 17.2828 11.5701 17.2828H5.0762L5 17.5508C5 17.5508 6.98586 17.9639 9.30996 19.3597L12.8897 33.1091H17.1827L23.738 17.2828H19.3036ZM51.712 33.1087H55.4953L52.1967 17.2824H48.8845C47.355 17.2824 46.9825 18.4618 46.9825 18.4618L40.8373 33.1087H45.1325L45.9914 30.7579H51.2294L51.712 33.1087ZM47.1781 27.5105L49.343 21.5881L50.5609 27.5105H47.1781ZM41.1595 21.0886L41.7475 17.69C41.7475 17.69 39.9331 17 38.0417 17C35.9969 17 31.1413 17.8937 31.1413 22.2392C31.1413 26.3277 36.8402 26.3785 36.8402 28.5261C36.8402 30.6737 31.7285 30.2889 30.0415 28.9346L29.4289 32.4881C29.4289 32.4881 31.2687 33.3818 34.0797 33.3818C36.8915 33.3818 41.1333 31.9259 41.1333 27.9635C41.1333 23.8487 35.3831 23.4656 35.3831 21.6766C35.3835 19.8871 39.3963 20.117 41.1595 21.0886Z" fill="#2566AF"/>
<path d="M14.9111 25.8245L13.5247 18.7074C13.5247 18.7074 13.357 17.2825 11.5701 17.2825H5.0762L5 17.5504C5 17.5504 8.12124 18.1973 11.1151 20.6209C13.9776 22.9374 14.9111 25.8245 14.9111 25.8245Z" fill="#E6A540"/>
</svg>

<svg xmlns="http://www.w3.org/2000/svg" width="60" height="50" fill="none" xmlns:v="https://vecta.io/nano"><path d="M26.9 33.11h-4.12l2.575-15.826h4.12L26.9 33.11zm-7.587-15.826l-3.928 10.885-.465-2.344v.001l-1.386-7.117s-.168-1.425-1.955-1.425H5.076L5 17.55s1.986.413 4.3 1.81l3.58 13.75h4.293l6.555-15.826h-4.434zM51.712 33.11h3.783l-3.3-15.826h-3.312c-1.53 0-1.902 1.18-1.902 1.18L40.837 33.11h4.295l.86-2.35h5.238l.483 2.35zm-4.534-5.598l2.165-5.922 1.218 5.922h-3.383zm-6.02-6.422l.588-3.4s-1.814-.7-3.706-.7c-2.045 0-6.9.894-6.9 5.24 0 4.09 5.7 4.14 5.7 6.287s-5.112 1.763-6.8.41l-.613 3.554s1.84.894 4.65.894 7.054-1.456 7.054-5.418c0-4.115-5.75-4.498-5.75-6.287s4.013-1.56 5.776-.588z" fill="#2566af"/><path d="M14.91 25.825l-1.386-7.117s-.168-1.425-1.955-1.425H5.076L5 17.55s3.12.647 6.115 3.07c2.863 2.317 3.796 5.204 3.796 5.204z" fill="#e6a540"/></svg>
